web-components-icons/e900-file/SVG/toc-section-level.svg

<?xml version="1.0" encoding="utf-8"?>
<!-- Generator: Adobe Illustrator 24.2.0, SVG Export Plug-In . SVG Version: 6.00 Build 0)  -->
<svg version="1.1" id="Layer_1" xmlns="http://www.w3.org/2000/svg" xmlns:xlink="http://www.w3.org/1999/xlink" x="0px" y="0px"
	 width="512px" height="512px" viewBox="0 0 512 512" xml:space="preserve">
<path d="M96,32c-17.7,0-32,14.3-32,32v384c0,17.7,14.3,32,32,32h320c17.7,0,32-14.3,32-32V64c0-17.7-14.3-32-32-32H96z M416,448H96
	V64h320V448z M384,160H192v-32h192V160z M384,224h-96v-32h96V224z M384,288h-96v-32h96V288z M384,352h-96v-32h96V352z M192,320v-96
	l64,48L192,320z"/>
</svg>

<svg xmlns="http://www.w3.org/2000/svg" viewBox="0 0 512 512"><title>toc-section-level</title><g id="TOC_section_level" data-name="TOC section level"><path d="M96,32A32,32,0,0,0,64,64V448a32,32,0,0,0,32,32H416a32,32,0,0,0,32-32V64a32,32,0,0,0-32-32ZM416,448H96V64H416ZM384,160H192V128H384Zm0,64H288V192h96Zm0,64H288V256h96Zm0,64H288V320h96ZM192,320V224l64,48Z"/></g></svg>
